packages/foundations/assets/icons/functional/images/transportation/electric_scooter_inverted.svg

<svg xmlns="http://www.w3.org/2000/svg" width="32" height="32" fill="none"><path fill="#1A1C1F" fill-rule="evenodd" d="M25.573 5.475c-.709.15-1.242.294-1.454.392-.674.312-1.188 1.022-1.302 1.8-.051.344-.02.541.698 4.493.413 2.273.752 4.157.752 4.187 0 .029-.126.123-.28.209-1.002.556-2.289 1.514-3.101 2.308-1.199 1.172-1.595 2.038-1.767 3.87l-.034.36-5.125-.014-5.124-.013-.069-.34c-.252-1.236-1.306-2.274-2.585-2.547-1.869-.398-3.702.89-4 2.81-.248 1.604.833 3.249 2.418 3.677 1.191.322 2.387.008 3.24-.849.227-.229.471-.538.561-.711l.159-.306 5.871-.014 5.871-.014.201-.153c.299-.229.37-.444.333-1.02-.068-1.055.143-2.112.542-2.724.259-.398 1.159-1.269 1.822-1.764.545-.407 1.38-.951 1.409-.919.009.011.11.523.223 1.136.145.788.187 1.122.144 1.137-.197.065-.853.596-1.059.856-1.1 1.39-1.001 3.259.238 4.49.656.652 1.403.964 2.325.971a3.32 3.32 0 0 0 3.206-2.318c.116-.357.143-.543.146-.998.006-.969-.271-1.636-.979-2.353-.529-.537-1.014-.804-1.708-.94-.291-.058-.431-.11-.448-.169-.014-.047-.507-2.725-1.096-5.952s-1.083-5.93-1.099-6.007c-.037-.184.096-.496.254-.598.068-.044.652-.191 1.297-.327.646-.136 1.258-.29 1.36-.342.529-.268.563-1.081.06-1.422-.271-.184-.565-.166-1.9.118M3.651 16.182c-.646.281-.652 1.235-.01 1.527.176.079.349.102.786.103.695.002 1.758.123 2.308.265.521.133 1.187.477 1.537.791.315.283.64.746.849 1.206.082.18.213.392.292.471.527.527 1.428.143 1.428-.608 0-.247-.395-1.091-.73-1.561-.335-.469-1.013-1.088-1.48-1.352-.823-.465-1.89-.751-3.218-.862-.876-.074-1.565-.066-1.762.02m2.558 5.788c.335.164.614.443.778.779.195.398.188 1.006-.017 1.422-.386.788-1.339 1.138-2.118.78-.408-.187-.593-.36-.799-.747-.157-.294-.179-.384-.179-.736-.001-.528.147-.872.524-1.216.372-.339.645-.439 1.149-.423.295.009.469.046.662.141m20.832-.066c.373.12.799.511.962.882.193.44.177.936-.046 1.388-.197.4-.389.584-.809.777-.77.354-1.733.007-2.108-.76a1.648 1.648 0 0 1 .921-2.297c.277-.102.748-.098 1.08.01"/></svg>

<svg width="32" height="32" viewBox="0 0 32 32" fill="none" xmlns="http://www.w3.org/2000/svg"><path d="M25.573 5.475 C 24.864 5.625,24.331 5.769,24.119 5.867 C 23.445 6.179,22.931 6.889,22.817 7.667 C 22.766 8.011,22.797 8.208,23.515 12.160 C 23.928 14.433,24.267 16.317,24.267 16.347 C 24.267 16.376,24.141 16.470,23.987 16.556 C 22.985 17.112,21.698 18.070,20.886 18.864 C 19.687 20.036,19.291 20.902,19.119 22.734 L 19.085 23.094 13.960 23.080 L 8.836 23.067 8.767 22.727 C 8.515 21.491,7.461 20.453,6.182 20.180 C 4.313 19.782,2.480 21.070,2.182 22.990 C 1.934 24.594,3.015 26.239,4.600 26.667 C 5.791 26.989,6.987 26.675,7.840 25.818 C 8.067 25.589,8.311 25.280,8.401 25.107 L 8.560 24.801 14.431 24.787 L 20.302 24.773 20.503 24.620 C 20.802 24.391,20.873 24.176,20.836 23.600 C 20.768 22.545,20.979 21.488,21.378 20.876 C 21.637 20.478,22.537 19.607,23.200 19.112 C 23.745 18.705,24.580 18.161,24.609 18.193 C 24.618 18.204,24.719 18.716,24.832 19.329 C 24.977 20.117,25.019 20.451,24.976 20.466 C 24.779 20.531,24.123 21.062,23.917 21.322 C 22.817 22.712,22.916 24.581,24.155 25.812 C 24.811 26.464,25.558 26.776,26.480 26.783 C 27.950 26.794,29.229 25.870,29.686 24.465 C 29.802 24.108,29.829 23.922,29.832 23.467 C 29.838 22.498,29.561 21.831,28.853 21.114 C 28.324 20.577,27.839 20.310,27.145 20.174 C 26.854 20.116,26.714 20.064,26.697 20.005 C 26.683 19.958,26.190 17.280,25.601 14.053 C 25.012 10.827,24.518 8.123,24.502 8.046 C 24.465 7.862,24.598 7.550,24.756 7.448 C 24.824 7.404,25.408 7.257,26.053 7.121 C 26.699 6.985,27.311 6.831,27.413 6.779 C 27.942 6.511,27.976 5.698,27.473 5.357 C 27.202 5.173,26.908 5.191,25.573 5.475 M3.651 16.182 C 3.005 16.463,2.999 17.417,3.641 17.709 C 3.817 17.788,3.990 17.811,4.427 17.812 C 5.122 17.814,6.185 17.935,6.735 18.077 C 7.256 18.210,7.922 18.554,8.272 18.868 C 8.587 19.151,8.912 19.614,9.121 20.074 C 9.203 20.254,9.334 20.466,9.413 20.545 C 9.940 21.072,10.841 20.688,10.841 19.937 C 10.841 19.690,10.446 18.846,10.111 18.376 C 9.776 17.907,9.098 17.288,8.631 17.024 C 7.808 16.559,6.741 16.273,5.413 16.162 C 4.537 16.088,3.848 16.096,3.651 16.182 M6.209 21.970 C 6.544 22.134,6.823 22.413,6.987 22.749 C 7.182 23.147,7.175 23.755,6.970 24.171 C 6.584 24.959,5.631 25.309,4.852 24.951 C 4.444 24.764,4.259 24.591,4.053 24.204 C 3.896 23.910,3.874 23.820,3.874 23.468 C 3.873 22.940,4.021 22.596,4.398 22.252 C 4.770 21.913,5.043 21.813,5.547 21.829 C 5.842 21.838,6.016 21.875,6.209 21.970 M27.041 21.904 C 27.414 22.024,27.840 22.415,28.003 22.786 C 28.196 23.226,28.180 23.722,27.957 24.174 C 27.760 24.574,27.568 24.758,27.148 24.951 C 26.378 25.305,25.415 24.958,25.040 24.191 C 24.598 23.289,25.019 22.240,25.961 21.894 C 26.238 21.792,26.709 21.796,27.041 21.904 " fill="#1A1C1F" stroke="none" fill-rule="evenodd"></path></svg>
